src/lib/packages/icons/src/assets/line/plus-circle.svg

<svg xmlns="http://www.w3.org/2000/svg" width="24" height="24" fill="none"><path fill="currentColor" d="M12 1.25C6.072 1.25 1.25 6.073 1.25 12S6.072 22.75 12 22.75 22.75 17.927 22.75 12 17.928 1.25 12 1.25Zm0 20c-5.101 0-9.25-4.149-9.25-9.25S6.899 2.75 12 2.75s9.25 4.149 9.25 9.25-4.149 9.25-9.25 9.25ZM16.25 12a.75.75 0 0 1-.75.75h-2.75v2.75a.75.75 0 0 1-1.5 0v-2.75H8.5a.75.75 0 0 1 0-1.5h2.75V8.5a.75.75 0 0 1 1.5 0v2.75h2.75a.75.75 0 0 1 .75.75Z"/></svg>

<svg width="24" height="24" viewBox="0 0 24 24" fill="none" xmlns="http://www.w3.org/2000/svg">
<path d="M12 1.25C6.072 1.25 1.25 6.073 1.25 12C1.25 17.927 6.072 22.75 12 22.75C17.928 22.75 22.75 17.927 22.75 12C22.75 6.073 17.928 1.25 12 1.25ZM12 21.25C6.899 21.25 2.75 17.101 2.75 12C2.75 6.899 6.899 2.75 12 2.75C17.101 2.75 21.25 6.899 21.25 12C21.25 17.101 17.101 21.25 12 21.25ZM16.25 12C16.25 12.414 15.914 12.75 15.5 12.75H12.75V15.5C12.75 15.914 12.414 16.25 12 16.25C11.586 16.25 11.25 15.914 11.25 15.5V12.75H8.5C8.086 12.75 7.75 12.414 7.75 12C7.75 11.586 8.086 11.25 8.5 11.25H11.25V8.5C11.25 8.086 11.586 7.75 12 7.75C12.414 7.75 12.75 8.086 12.75 8.5V11.25H15.5C15.914 11.25 16.25 11.586 16.25 12Z" fill="currentColor"/>
</svg>
